assets/icons/uE01E-pen.svg

<svg xmlns="http://www.w3.org/2000/svg" width="896" height="1232" viewBox="0 0 896 1232"><path d="M838 114q28 28 45 74.5t10 105T843 395L539 700q-16 14-38 16L342 875q-10 11-26 15L69 950q-4 2-13 2-22 0-40-16-22-23-14-53l60-247q3-14 15-26l146-147-25-25q-16-16-16-39t16-40L467 90q16-16 40-16 23 0 39 16l15 15q52-49 126-49 45 0 86 17t65 41zM302 836l173-173-186-186-173 173-60 246zm502-481q30-30 34.5-72.5t-8.5-76-32-52.5q-16-17-47-29.5T687 112q-54 0-90 36l-36 36-54-54-269 269 27 27 241-241 27 27-235 235 207 207z"/></svg>

<?xml version="1.0" encoding="UTF-8" standalone="no"?><svg   xmlns:svg="http://www.w3.org/2000/svg"   xmlns="http://www.w3.org/2000/svg"   version="1.1"   width="896"   height="1232"   viewBox="0 0 896 1232">  <path     d="M838 114Q866 142 883 188.5T893 293.5T843 395L539 700Q523 714 501 716L342 875Q332 886 316 890L69 950Q65 952 56 952Q34 952 16 936Q-6 913 2 883L62 636Q65 622 77 610L223 463L198 438Q182 422 182 399T198 359L467 90Q483 74 507 74Q530 74 546 90L561 105Q613 56 687 56Q732 56 773 73T838 114zM302 836L475 663L289 477L116 650L56 896zM804 355Q834 325 838.5 282.5T830 206.5T798 154Q782 137 751 124.5T687 112Q633 112 597 148L561 184L507 130L238 399L265 426L506 185L533 212L298 447L505 654z"     id="icon69" /></svg>
